T: Wishing Well, The
M: 3/4
L: 1/8
K: Amin
E cB|:"Am"A2 AB cd|"C"e3 A ce|"F"fe de "G"fg|"Am"e3 c de|
[1"Dm"fe de fg|"C"ef ed ce|"G"dc Bd cA|"E7/G#"B3 G cB:|
[2"Dm"fe fg ab|"C"c'b ag fe|"E7/B"dc Bd cB|"Am"A3 cd2||
